; generated by PrusaSlicer 2.4.0+linux-x64 on 2022-05-22 at 08:20:30 UTC


;
;

;
;
; 

; external perimeters extrusion width = 0.45mm
; perimeters extrusion width = 0.45mm
; infill extrusion width = 0.45mm
; solid infill extrusion width = 0.45mm
; top infill extrusion width = 0.40mm
; first layer extrusion width = 0.42mm

M73 P0 R55
M201 X2500 Y2500 Z400 E5000 ; sets maximum accelerations, mm/sec^2
M203 X180 Y180 Z12 E80 ; sets maximum feedrates, mm/sec
M204 P1250 R1250 T2500 ; sets acceleration (P, T) and retract acceleration (R), mm/sec^2
M205 X8.00 Y8.00 Z2.00 E10.00 ; sets the jerk limits, mm/sec
M205 S0 T0 ; sets the minimum extruding and travel feed rate, mm/sec
M107
;TYPE:Custom
G90 ; use absolute coordinates
M83 ; extruder relative mode
M104 S170 ; set extruder temp for bed leveling
M140 S85 ; set bed temp
M109 R170 ; wait for bed leveling temp
M190 S85 ; wait for bed temp
M204 T1250 ; set travel acceleration
G28 ; home all without mesh bed level
G29 ; mesh bed leveling 
M204 T2500 ; restore travel acceleration
M104 S220 ; set extruder temp
G92 E0
G1 Y-2 X179 F2400
G1 Z3 F720
M109 S220 ; wait for extruder temp

; intro line
G1 X170 F1000
G1 Z0.2 F720
G1 X110 E8 F900
G1 X40 E10 F700
G92 E0

M221 S95 ; set flow
G21 ; set units to millimeters
G90 ; use absolute coordinates
M83 ; use relative distances for extrusion
M900 K0.2 ; Filament gcode
M107
;LAYER_CHANGE
;Z:0.35
;HEIGHT:0.35
;BEFORE_LAYER_CHANGE
G92 E0.0
;0.35


G1 E-3.2 F2400
G1 Z.2 F9000
G1 Z.35
;AFTER_LAYER_CHANGE
;0.35
G1 Z.55
G1 X63.849 Y61.742
G1 Z.35
G1 E3.2 F1500
M204 P800
;TYPE:Skirt/Brim
;WIDTH:0.42
G1 F1200
G1 X65.057 Y60.493 E.08723
G1 X67.587 Y58.327 E.16713
G1 X70.31 Y56.41 E.16712
G1 X73.266 Y54.724 E.17079
G1 X76.302 Y53.357 E.16711
G1 X79.454 Y52.281 E.16713
G1 X82.693 Y51.507 E.16711
G1 X84.813 Y51.171 E.10773
G1 X87.023 Y50.96 E.11143
G1 X90.353 Y50.904 E.16712
G1 X93.673 Y51.162 E.16711
G1 X96.954 Y51.731 E.16712
G1 X100.237 Y52.629 E.17081
G1 X103.35 Y53.81 E.16712
G1 X106.339 Y55.278 E.16711
G1 X109.177 Y57.02 E.16712
G1 X110.913 Y58.282 E.10774
G1 X112.626 Y59.696 E.11142
G1 X115.019 Y62.01 E.16711
G1 X117.179 Y64.533 E.16664
G1 X119.102 Y67.263 E.16761
G1 X120.755 Y70.154 E.16711
G1 X122.152 Y73.246 E.17031
G1 X123.231 Y76.407 E.16762
G1 X124.005 Y79.646 E.16711
G1 X124.471 Y82.943 E.1671
G1 X124.607 Y85.149 E.11095
G1 X124.608 Y87.297 E.10777
G1 X124.35 Y90.626 E.16756
G1 X123.781 Y93.906 E.16709
G1 X122.883 Y97.19 E.17084
G1 X121.703 Y100.303 E.16712
G1 X120.234 Y103.292 E.16711
G1 X119.142 Y105.14 E.10775
G1 X117.91 Y106.957 E.11013
G1 X115.816 Y109.579 E.1684
G1 X113.502 Y111.972 E.16711
G1 X110.972 Y114.138 E.16713
G1 X108.249 Y116.055 E.16712
G1 X105.293 Y117.741 E.17079
G1 X102.257 Y119.109 E.16712
G1 X99.105 Y120.184 E.16713
G1 X95.866 Y120.958 E.16711
G1 X93.673 Y121.303 E.11143
G1 X91.536 Y121.505 E.10773
G1 X88.206 Y121.561 E.16712
G1 X84.886 Y121.303 E.16711
G1 X81.605 Y120.734 E.16712
G1 X78.322 Y119.836 E.17081
G1 X75.209 Y118.656 E.16712
G1 X72.22 Y117.188 E.16711
G1 X69.382 Y115.445 E.16712
G1 X67.646 Y114.183 E.10774
G1 X65.933 Y112.769 E.11142
G1 X63.54 Y110.455 E.16711
G1 X61.374 Y107.925 E.16713
G1 X59.457 Y105.202 E.16712
G1 X57.804 Y102.312 E.16711
G1 X56.407 Y99.219 E.17031
G1 X55.328 Y96.058 E.16762
G1 X54.554 Y92.819 E.16711
G1 X54.088 Y89.522 E.1671
G1 X53.952 Y87.316 E.11095
G1 X53.951 Y85.168 E.10777
G1 X54.209 Y81.839 E.16756
G1 X54.778 Y78.559 E.16709
G1 X55.653 Y75.346 E.16715
G1 X56.853 Y72.171 E.17033
G1 X58.325 Y69.173 E.1676
G1 X59.457 Y67.263 E.11143
G1 X60.658 Y65.495 E.10726
G1 X62.742 Y62.887 E.16756
G1 X63.807 Y61.785 E.0769
M204 P1250
; printing object vjeverice_1.stl id:0 copy 0
G1 E-2.24 F2400
;WIPE_START
G1 F7200
G1 X65.057 Y60.493 E-.5694
G1 X65.879 Y59.789 E-.3426
;WIPE_END
G1 E-.048 F2400
G1 Z.55 F9000
G1 X71.09 Y67.527
G1 Z.35
G1 E3.2 F1500
M204 P800
;TYPE:Perimeter
G1 F1200
G1 X72.014 Y66.659 E.06363
G1 X72.643 Y66.122 E.0415
G1 X73.288 Y65.605 E.0415
G1 X74.609 Y64.646 E.08193
G1 X75.987 Y63.771 E.08194
G1 X76.706 Y63.361 E.0415
G1 X77.437 Y62.974 E.0415
G1 X78.914 Y62.279 E.08194
G1 X80.432 Y61.678 E.08193
G1 X81.221 Y61.408 E.04186
G1 X82.782 Y60.954 E.08158
G1 X83.586 Y60.761 E.0415
G1 X84.396 Y60.594 E.0415
G1 X86.008 Y60.338 E.08194
G1 X87.64 Y60.184 E.08227
G1 X89.199 Y60.134 E.07827
G1 X90.105 Y60.146 E.04548
G1 X91.729 Y60.248 E.08164
G1 X92.558 Y60.339 E.04186
G1 X94.17 Y60.595 E.08194
G1 X95.764 Y60.951 E.08193
G1 X96.561 Y61.169 E.0415
G1 X97.352 Y61.412 E.0415
G1 X98.881 Y61.963 E.08158
G1 X99.652 Y62.282 E.04186
G1 X101.129 Y62.977 E.08194
G1 X102.559 Y63.764 E.08193
G1 X103.265 Y64.196 E.04151
G1 X103.956 Y64.65 E.0415
G1 X105.277 Y65.609 E.08193
G1 X106.54 Y66.654 E.08229
G1 X107.735 Y67.777 E.08229
G1 X108.853 Y68.967 E.08194
G1 X109.39 Y69.596 E.0415
G1 X109.907 Y70.241 E.0415
G1 X110.866 Y71.562 E.08193
G1 X111.741 Y72.941 E.08194
G1 X112.151 Y73.659 E.0415
G1 X112.538 Y74.39 E.0415
G1 X113.233 Y75.867 E.08194
G1 X113.834 Y77.385 E.08193
G1 X114.104 Y78.174 E.04186
G1 X114.56 Y79.742 E.08193
G1 X114.917 Y81.342 E.08229
G1 X115.173 Y82.954 E.08194
G1 X115.264 Y83.776 E.0415
G1 X115.328 Y84.601 E.0415
G1 X115.38 Y86.233 E.08193
G1 X115.328 Y87.864 E.08193
G1 X115.264 Y88.689 E.0415
G1 X115.173 Y89.511 E.0415
G1 X114.917 Y91.123 E.08194
G1 X114.56 Y92.723 E.08229
G1 X114.104 Y94.291 E.08193
G1 X113.834 Y95.08 E.04186
G1 X113.233 Y96.598 E.08193
G1 X112.538 Y98.076 E.08194
G1 X112.151 Y98.806 E.0415
G1 X111.741 Y99.525 E.0415
G1 X110.866 Y100.903 E.08194
G1 X109.907 Y102.224 E.08193
G1 X109.39 Y102.869 E.0415
G1 X108.853 Y103.498 E.0415
G1 X107.735 Y104.688 E.08194
G1 X106.545 Y105.806 E.08193
G1 X105.916 Y106.343 E.0415
G1 X105.271 Y106.86 E.0415
G1 X103.95 Y107.82 E.08193
G1 X102.572 Y108.694 E.08194
G1 X101.853 Y109.104 E.0415
G1 X101.122 Y109.491 E.0415
G1 X99.645 Y110.186 E.08194
G1 X98.127 Y110.787 E.08193
G1 X97.338 Y111.057 E.04186
G1 X95.77 Y111.513 E.08193
G1 X94.17 Y111.871 E.08229
G1 X92.558 Y112.126 E.08194
G1 X91.736 Y112.217 E.0415
G1 X90.911 Y112.282 E.0415
G1 X89.279 Y112.333 E.08193
G1 X87.648 Y112.282 E.08193
G1 X86.823 Y112.217 E.0415
G1 X86.001 Y112.126 E.0415
G1 X84.389 Y111.871 E.08194
G1 X82.789 Y111.513 E.08229
G1 X81.221 Y111.057 E.08193
G1 X80.432 Y110.787 E.04186
G1 X78.914 Y110.186 E.08193
M73 P1 R55
G1 X77.437 Y109.491 E.08194
G1 X76.706 Y109.104 E.0415
G1 X75.987 Y108.694 E.0415
G1 X74.609 Y107.82 E.08194
G1 X73.288 Y106.86 E.08193
G1 X72.643 Y106.343 E.0415
G1 X72.014 Y105.806 E.0415
G1 X70.824 Y104.688 E.08193
G1 X69.706 Y103.498 E.08194
G1 X69.169 Y102.869 E.0415
G1 X68.652 Y102.224 E.0415
G1 X67.693 Y100.903 E.08193
G1 X66.818 Y99.525 E.08194
G1 X66.408 Y98.806 E.0415
G1 X66.021 Y98.076 E.0415
G1 X65.326 Y96.598 E.08194
G1 X64.725 Y95.08 E.08193
G1 X64.455 Y94.291 E.04186
G1 X63.999 Y92.723 E.08193
G1 X63.642 Y91.123 E.08229
G1 X63.386 Y89.511 E.08194
G1 X63.295 Y88.689 E.0415
G1 X63.23 Y87.864 E.0415
G1 X63.179 Y86.233 E.08193
G1 X63.23 Y84.601 E.08193
G1 X63.295 Y83.776 E.0415
G1 X63.386 Y82.954 E.0415
G1 X63.642 Y81.342 E.08194
G1 X63.999 Y79.742 E.08229
G1 X64.455 Y78.174 E.08193
G1 X64.725 Y77.385 E.04186
G1 X65.326 Y75.867 E.08193
G1 X66.021 Y74.39 E.08194
G1 X66.408 Y73.659 E.0415
G1 X66.818 Y72.941 E.0415
G1 X67.693 Y71.562 E.08194
G1 X68.652 Y70.241 E.08193
G1 X69.169 Y69.596 E.0415
G1 X69.706 Y68.967 E.0415
G1 X70.824 Y67.777 E.08194
G1 X71.046 Y67.568 E.01529
M204 P1250
G1 X71.051 Y68.039 F9000
M204 P800
G1 F1200
G1 X72.244 Y66.916 E.08221
G1 X72.863 Y66.388 E.04082
G1 X73.497 Y65.879 E.04082
G1 X74.803 Y64.931 E.08098
G1 X76.165 Y64.066 E.08099
G1 X76.872 Y63.663 E.04082
G1 X77.591 Y63.283 E.04082
G1 X79.051 Y62.596 E.08098
G1 X80.551 Y62.002 E.08098
G1 X81.325 Y61.737 E.04104
G1 X82.87 Y61.288 E.08076
G1 X83.661 Y61.098 E.04082
G1 X84.458 Y60.933 E.04082
G1 X86.052 Y60.68 E.08098
G1 X87.662 Y60.528 E.08119
G1 X89.202 Y60.479 E.07734
G1 X90.092 Y60.49 E.04466
G1 X91.699 Y60.591 E.0808
G1 X92.512 Y60.681 E.04104
G1 X94.106 Y60.934 E.08098
G1 X95.68 Y61.286 E.08098
G1 X96.465 Y61.5 E.04082
G1 X97.242 Y61.739 E.04082
G1 X98.756 Y62.285 E.08076
G1 X99.512 Y62.597 E.04104
G1 X100.972 Y63.285 E.08098
G1 X102.386 Y64.062 E.08098
G1 X103.08 Y64.487 E.04083
G1 X103.76 Y64.934 E.04082
G1 X105.065 Y65.882 E.08098
G1 X106.312 Y66.913 E.0812
G1 X107.491 Y68.021 E.0812
G1 X108.596 Y69.197 E.08098
G1 X109.124 Y69.816 E.04082
G1 X109.633 Y70.451 E.04082
G1 X110.581 Y71.756 E.08098
G1 X111.446 Y73.118 E.08099
G1 X111.849 Y73.825 E.04082
G1 X112.229 Y74.544 E.04082
G1 X112.916 Y76.004 E.08099
G1 X113.51 Y77.504 E.08098
G1 X113.775 Y78.278 E.04104
G1 X114.226 Y79.828 E.08098
G1 X114.578 Y81.407 E.0812
G1 X114.831 Y83 E.08098
G1 X114.92 Y83.809 E.04082
G1 X114.984 Y84.62 E.04082
G1 X115.035 Y86.233 E.08098
G1 X114.984 Y87.845 E.08098
G1 X114.92 Y88.656 E.04082
G1 X114.831 Y89.465 E.04082
G1 X114.578 Y91.059 E.08098
G1 X114.226 Y92.638 E.0812
G1 X113.775 Y94.187 E.08098
G1 X113.51 Y94.961 E.04104
G1 X112.916 Y96.461 E.08098
G1 X112.229 Y97.921 E.08099
G1 X111.849 Y98.64 E.04082
G1 X111.446 Y99.347 E.04082
G1 X110.581 Y100.709 E.08099
G1 X109.633 Y102.015 E.08098
G1 X109.124 Y102.649 E.04082
G1 X108.596 Y103.268 E.04082
G1 X107.491 Y104.444 E.08098
G1 X106.315 Y105.549 E.08098
G1 X105.696 Y106.077 E.04082
G1 X105.062 Y106.586 E.04082
G1 X103.756 Y107.534 E.08098
G1 X102.394 Y108.399 E.08099
G1 X101.687 Y108.802 E.04082
G1 X100.968 Y109.183 E.04082
G1 X99.508 Y109.87 E.08098
G1 X98.008 Y110.464 E.08098
G1 X97.234 Y110.728 E.04104
G1 X95.685 Y111.179 E.08098
G1 X94.106 Y111.532 E.0812
G1 X92.512 Y111.784 E.08098
G1 X91.703 Y111.873 E.04082
G1 X90.892 Y111.937 E.04082
G1 X89.279 Y111.988 E.08098
G1 X87.667 Y111.937 E.08098
G1 X86.856 Y111.873 E.04082
G1 X86.047 Y111.784 E.04082
G1 X84.453 Y111.532 E.08098
G1 X82.874 Y111.179 E.0812
G1 X81.325 Y110.728 E.08098
G1 X80.551 Y110.464 E.04104
G1 X79.051 Y109.87 E.08098
G1 X77.591 Y109.183 E.08098
G1 X76.872 Y108.802 E.04082
G1 X76.165 Y108.399 E.04082
G1 X74.803 Y107.534 E.08099
G1 X73.497 Y106.586 E.08098
G1 X72.863 Y106.077 E.04082
G1 X72.244 Y105.549 E.04082
G1 X71.068 Y104.444 E.08098
G1 X69.963 Y103.268 E.08098
G1 X69.435 Y102.649 E.04082
G1 X68.926 Y102.015 E.04082
G1 X67.978 Y100.709 E.08098
G1 X67.113 Y99.347 E.08099
G1 X66.71 Y98.64 E.04082
G1 X66.33 Y97.921 E.04082
G1 X65.642 Y96.461 E.08099
G1 X65.049 Y94.961 E.08098
G1 X64.784 Y94.187 E.04104
G1 X64.333 Y92.638 E.08098
G1 X63.98 Y91.059 E.0812
G1 X63.728 Y89.465 E.08098
G1 X63.639 Y88.656 E.04082
G1 X63.575 Y87.845 E.04082
G1 X63.524 Y86.233 E.08098
G1 X63.575 Y84.62 E.08098
G1 X63.639 Y83.809 E.04082
G1 X63.728 Y83 E.04082
G1 X63.98 Y81.407 E.08098
G1 X64.333 Y79.828 E.0812
G1 X64.784 Y78.278 E.08098
G1 X65.049 Y77.504 E.04104
G1 X65.642 Y76.004 E.08098
G1 X66.33 Y74.544 E.08099
G1 X66.71 Y73.825 E.04082
G1 X67.113 Y73.118 E.04082
G1 X67.978 Y71.756 E.08099
G1 X68.926 Y70.451 E.08098
G1 X69.435 Y69.816 E.04082
G1 X69.963 Y69.197 E.04082
G1 X71.01 Y68.082 E.07675
M204 P1250
G1 X71.029 Y68.566 F9000
M204 P800
;TYPE:External perimeter
G1 F1200
G1 X71.312 Y68.265 E.02076
G1 X72.474 Y67.173 E.08003
G1 X73.083 Y66.654 E.04014
G1 X73.707 Y66.154 E.04015
G1 X74.997 Y65.216 E.08003
G1 X76.343 Y64.362 E.08003
G1 X77.038 Y63.966 E.04014
G1 X77.745 Y63.591 E.04014
G1 X79.188 Y62.912 E.08003
G1 X80.671 Y62.325 E.08003
G1 X81.429 Y62.066 E.04023
G1 X82.959 Y61.621 E.07994
G1 X83.736 Y61.435 E.04015
G1 X84.52 Y61.272 E.04014
G1 X86.095 Y61.023 E.08003
G1 X87.684 Y60.873 E.08011
G1 X89.206 Y60.824 E.07641
G1 X90.079 Y60.835 E.04383
G1 X91.669 Y60.935 E.07996
G1 X92.466 Y61.023 E.04023
G1 X94.041 Y61.273 E.08003
G1 X95.597 Y61.62 E.08003
G1 X96.369 Y61.832 E.04014
G1 X97.133 Y62.067 E.04014
G1 X98.632 Y62.606 E.07995
G1 X99.373 Y62.913 E.04022
G1 X100.815 Y63.592 E.08003
G1 X102.213 Y64.36 E.08002
G1 X102.895 Y64.778 E.04015
G1 X103.563 Y65.217 E.04014
G1 X104.854 Y66.155 E.08003
G1 X106.084 Y67.172 E.08011
G1 X107.247 Y68.265 E.08011
G1 X108.339 Y69.427 E.08003
G1 X108.858 Y70.036 E.04014
G1 X109.358 Y70.66 E.04015
G1 X110.296 Y71.95 E.08003
G1 X111.15 Y73.296 E.08003
G1 X111.547 Y73.991 E.04014
G1 X111.921 Y74.698 E.04014
G1 X112.6 Y76.141 E.08003
G1 X113.187 Y77.624 E.08003
G1 X113.446 Y78.382 E.04023
G1 X113.891 Y79.913 E.08003
G1 X114.24 Y81.471 E.08011
G1 X114.489 Y83.046 E.08003
G1 X114.577 Y83.841 E.04014
G1 X114.64 Y84.639 E.04014
G1 X114.69 Y86.233 E.08003
G1 X114.64 Y87.826 E.08003
G1 X114.577 Y88.624 E.04014
G1 X114.489 Y89.419 E.04014
G1 X114.24 Y90.994 E.08003
G1 X113.891 Y92.552 E.08011
G1 X113.446 Y94.083 E.08003
G1 X113.187 Y94.841 E.04023
G1 X112.6 Y96.324 E.08003
G1 X111.921 Y97.767 E.08003
G1 X111.547 Y98.474 E.04014
G1 X111.15 Y99.169 E.04014
G1 X110.296 Y100.515 E.08003
G1 X109.358 Y101.805 E.08003
G1 X108.858 Y102.43 E.04015
G1 X108.339 Y103.038 E.04014
G1 X107.247 Y104.2 E.08003
G1 X106.085 Y105.292 E.08003
G1 X105.476 Y105.811 E.04014
G1 X104.852 Y106.312 E.04015
G1 X103.562 Y107.249 E.08003
G1 X102.216 Y108.103 E.08003
G1 X101.521 Y108.5 E.04014
G1 X100.814 Y108.874 E.04014
G1 X99.371 Y109.553 E.08003
G1 X97.888 Y110.14 E.08003
G1 X97.13 Y110.4 E.04023
G1 X95.599 Y110.844 E.08003
G1 X94.041 Y111.193 E.08011
G1 X92.466 Y111.442 E.08003
G1 X91.671 Y111.53 E.04014
G1 X90.873 Y111.593 E.04014
G1 X89.279 Y111.643 E.08003
G1 X87.686 Y111.593 E.08003
G1 X86.888 Y111.53 E.04014
G1 X86.093 Y111.442 E.04014
G1 X84.518 Y111.193 E.08003
G1 X82.96 Y110.844 E.08011
G1 X81.429 Y110.4 E.08003
G1 X80.671 Y110.14 E.04023
G1 X79.188 Y109.553 E.08003
G1 X77.745 Y108.874 E.08003
G1 X77.038 Y108.5 E.04014
G1 X76.343 Y108.103 E.04014
M73 P1 R54
G1 X74.997 Y107.249 E.08003
G1 X73.707 Y106.312 E.08003
G1 X73.083 Y105.811 E.04015
G1 X72.474 Y105.292 E.04014
G1 X71.312 Y104.2 E.08003
G1 X70.22 Y103.038 E.08003
G1 X69.701 Y102.43 E.04014
G1 X69.201 Y101.805 E.04015
G1 X68.263 Y100.515 E.08003
G1 X67.409 Y99.169 E.08003
G1 X67.012 Y98.474 E.04014
G1 X66.638 Y97.767 E.04014
G1 X65.959 Y96.324 E.08003
G1 X65.372 Y94.841 E.08003
G1 X65.113 Y94.083 E.04023
G1 X64.668 Y92.552 E.08003
G1 X64.319 Y90.994 E.08011
G1 X64.07 Y89.419 E.08003
G1 X63.982 Y88.624 E.04014
G1 X63.919 Y87.826 E.04014
G1 X63.869 Y86.233 E.08003
G1 X63.919 Y84.639 E.08003
G1 X63.982 Y83.841 E.04014
G1 X64.07 Y83.046 E.04014
G1 X64.319 Y81.471 E.08003
G1 X64.668 Y79.913 E.08011
G1 X65.113 Y78.382 E.08003
G1 X65.372 Y77.624 E.04023
G1 X65.959 Y76.141 E.08003
G1 X66.638 Y74.698 E.08003
G1 X67.012 Y73.991 E.04014
G1 X67.409 Y73.296 E.04014
G1 X68.263 Y71.95 E.08003
G1 X69.201 Y70.66 E.08003
G1 X69.701 Y70.036 E.04015
G1 X70.22 Y69.427 E.04014
G1 X70.988 Y68.61 E.05626
M204 P1250
G1 X70.911 Y68.184 F9000
G1 E-2.24 F2400
;WIPE_START
G1 F7200
G1 X71.312 Y68.265 E-.14997
G1 X72.474 Y67.173 E-.50497
G1 X73.083 Y66.654 E-.25329
G1 X73.092 Y66.646 E-.00376
;WIPE_END
G1 E-.048 F2400
G1 Z.55 F9000
G1 X66.927 Y63.478
G1 Z.35
G1 E3.2 F1500
M204 P800
;TYPE:Perimeter
G1 F1200
G1 X67.442 Y62.978 E.03605
G1 X68.184 Y62.304 E.05029
G1 X68.946 Y61.653 E.05029
G1 X69.728 Y61.027 E.05029
G1 X70.529 Y60.425 E.0503
G1 X71.354 Y59.845 E.05058
G1 X72.187 Y59.298 E.05
G1 X73.041 Y58.775 E.05029
G1 X73.911 Y58.278 E.05029
G1 X74.797 Y57.809 E.05029
G1 X75.697 Y57.368 E.0503
G1 X76.61 Y56.956 E.05029
G1 X77.536 Y56.573 E.05029
G1 X78.479 Y56.216 E.05059
G1 X79.422 Y55.894 E.05
G1 X80.38 Y55.599 E.05029
G1 X81.346 Y55.335 E.05029
G1 X82.321 Y55.101 E.0503
G1 X83.302 Y54.898 E.05029
G1 X84.289 Y54.725 E.05029
G1 X85.281 Y54.584 E.05029
G1 X86.277 Y54.474 E.05029
G1 X87.276 Y54.395 E.05029
G1 X88.277 Y54.348 E.05029
G1 X89.285 Y54.333 E.05059
G1 X90.281 Y54.348 E.05
G1 X91.283 Y54.395 E.0503
G1 X92.282 Y54.474 E.05029
G1 X93.278 Y54.584 E.05029
G1 X94.27 Y54.725 E.05029
G1 X95.257 Y54.898 E.05029
G1 X96.238 Y55.101 E.05029
G1 X97.213 Y55.335 E.0503
G1 X98.179 Y55.599 E.05029
G1 X99.137 Y55.894 E.05029
G1 X100.085 Y56.218 E.05029
G1 X101.023 Y56.573 E.05029
G1 X101.949 Y56.956 E.0503
G1 X102.862 Y57.369 E.05029
G1 X103.762 Y57.809 E.0503
G1 X104.648 Y58.278 E.05029
G1 X105.518 Y58.775 E.05029
